packages/foundations/assets/icons/functional/images/editing/copy_16.svg

<svg width="16" height="16" viewBox="0 0 16 16" fill="none" xmlns="http://www.w3.org/2000/svg">
<g clip-path="url(#clip0_83_113)">
<path fill-rule="evenodd" clip-rule="evenodd" d="M3.9825 5.60001V12.8H8.7825C9.1825 12.8 9.5795 13.147 9.5825 13.6C9.5855 14.053 9.3005 14.4 8.7825 14.4H3.2625C3.02959 14.3984 2.80668 14.3052 2.64198 14.1405C2.47729 13.9758 2.38407 13.7529 2.3825 13.52V5.60001C2.3825 5.10901 2.7075 4.80201 3.1825 4.80001C3.6575 4.79801 3.9825 5.20001 3.9825 5.60001ZM12.6395 1.60001C13.1435 1.60001 13.6175 2.06001 13.6175 2.56001V10.239C13.6175 10.734 13.1645 11.199 12.6395 11.199H6.5955C6.0915 11.199 5.6175 10.731 5.6175 10.239V2.55901C5.6175 2.06501 6.0925 1.60001 6.5955 1.60001H12.6395ZM7.1825 3.20001H11.9825V9.60001H7.1825V3.20001Z" fill="#1A1C1F"/>
</g>
<defs>
<clipPath id="clip0_83_113">
<rect width="16" height="16" fill="white"/>
</clipPath>
</defs>
</svg>

<svg xmlns="http://www.w3.org/2000/svg" width="16" height="16" fill="none"><g clip-path="url(#a)"><path fill="#1A1C1F" fill-rule="evenodd" d="M3.983 5.6v7.2h4.8c.4 0 .797.347.8.8.002.453-.283.8-.8.8h-5.52a.886.886 0 0 1-.88-.88V5.6c0-.491.325-.798.8-.8s.8.4.8.8m8.657-4c.503 0 .977.46.977.96v7.679c0 .495-.453.96-.978.96H6.597c-.505 0-.979-.468-.979-.96v-7.68c0-.494.476-.959.979-.959zM7.182 3.2h4.8v6.4h-4.8z" clip-rule="evenodd"/></g><defs><clipPath id="a"><path fill="#fff" d="M0 0h16v16H0z"/></clipPath></defs></svg>
